X:22
T:Tommy Bhetty's
R:waltz
M:3/4
L:1/8
K:G Major
D2 |:G3 B dB|G3 B dB|d2 b3 a|ga fg ef|G3 B dB|G3 B dB|D2 F2 A2|c2 B2 A2|
G3 B dB|G3 B dB|d2 b3 a|ga fg ef|d g3 Bc|d3 c AF|G3 B AF|1 G4 D2 :|2 G3 gfg |:
a2 f2 d2|A2 F2 D2|C2 b3 a|ga fg ef|d3 e d2|B3 A B2|D2 F2 A2|c2 B2 A2|
d2 Bc de|d2 b2 af|g2 b3 a|ga fg ef|d g3 Bc|d3 c AF|G3 BAF|1 G3 gfg :|2 G6|]
